!!!!SEGMENT: pl-kk--kk-i-329--006_costanzi-giovanni-battista--confitebor-fidelia-omnia.krn
!!!cenid: 17xx:1925
!!!COM: Costanzi, Giovanni Battista
!!!COM-rismID:
!!!CDT: 1704-1778
!!!CNT: Italian
!!!OPR: Confitebor
!!!OTL: Fidelia omnia
!!!OMV: 006
!!!PDT:
!!!AGN: Sacred
!!!SMS-siglum: PL-Kk
!!!SMS-shelfmark: Kk.I.329
!!!SMS-shelfwork: 001-006 M
!!!SMS-variant:
!!!SMS-altvar:
!!!NIFC-rismSourceID: 1001143621
!!!NIFC-islandoraID: pl-kk:5543
!!!URL-pdf-islandora: https://repozytorium.nifc.pl/islandora/object/pl-kk%3A5543/datastream/PDF/view
!!!URL-scan: https://polish.musicsources.pl/pl/lokalizacje/galeria/rekopisy/5948 @EN{Scan on Polish Music Herritage in Open Access Website} @PL{Skany w portalu Dziedzictwo Muzyki Polskiej w otwartym dostępie}
!!!ONB-nifc: UWAGA: części Confitebor: 1. Confitebor, 2. Magna opera, 3. Confessio, 4. Memoriam fecit, 5. Memor erit, 6. Fidelia omnia, 7. Redemptionem, 8. Sanctum, 9. Intellectus bonus, 10. Gloria Patri, 11. Sicut erat, 12. Amen
!!!AIN: 2 alto 2 empty 1 organ 1 tenor 2 vox
!!!key:
**kern	**fba	**kern	**text	**kern	**text	**kern	**text	**kern	**text	**kern	**kern	**kern
*part8	*	*part7	*part7	*part6	*part6	*part5	*part5	*part4	*part4	*part3	*part2	*part1
*	*	*group2	*	*group2	*	*group2	*	*group2	*	*group1	*group1	*group1
*staff8	*	*staff7	*staff7	*staff6	*staff6	*staff5	*staff5	*staff4	*staff4	*staff3	*staff2	*staff1
*Iorgan	*	*Iempty	*	*Itenor	*	*Ialto	*	*Ivox	*	*Iempty	*Ialto	*Ivox
*I"Organo	*	*I"Baſso di Ripieno	*	*I"Tenore di Ripieno	*	*I"Alto di Ripieno	*	*I"Canto di Ripieno	*	*I"Baſso di Concerto	*I"Alto di Concerto	*I"Canto di Concerto.
*I'org	*	*I'B rip	*	*I'T rip	*	*I'A rip	*	*I'C rip	*	*I'B conc	*I'A conc	*I'C conc
*clefC1	*	*clefF4	*	*clefC4	*	*clefC3	*	*clefC1	*	*clefF4	*clefC3	*clefC1
*k[]	*	*k[]	*	*k[]	*	*k[]	*	*k[]	*	*k[]	*k[]	*k[]
*a:	*	*a:	*	*a:	*	*a:	*	*a:	*	*a:	*a:	*a:
*M2/2	*	*M2/2	*	*M2/2	*	*M2/2	*	*M2/2	*	*M2/2	*M2/2	*M2/2
*met(c|)	*	*met(c|)	*	*met(c|)	*	*met(c|)	*	*met(c|)	*	*met(c|)	*met(c|)	*met(c|)
=1	=1	=1	=1	=1	=1	=1	=1	=1	=1	=1	=1	=1
!	!	!LO:TX:b:t=18.	!	!LO:TX:b:t=13	!	!	!	!	!	!	!	!
!LO:TX:a:t=Tutti	!	!LO:TX:a:t=Tutti	!	!LO:TX:a:t=Tutti	!	!LO:TX:b:t=5	!	!LO:TX:a:t=Tutti	!	!LO:TX:a:t=Fidelia omnia Tacet	!LO:TX:a:t=Fidelia Tacet	!LO:TX:a:t=Fidelia Tacet
1ee	.	00r	.	00r	.	00r	.	1ee	Fi-	1ryy	1ryy	1ryy
=2-	=2	=2	=2	=2	=2	=2	=2	=2-	=2	=2	=2	=2
*2\right	*	*	*	*	*	*	*	*2\right	*	*	*	*
2cc\	.	.	.	.	.	.	.	2cc\	-de-	1ryy	1ryy	1ryy
4b\	.	.	.	.	.	.	.	4b\	-li-	.	.	.
4a\	.	.	.	.	.	.	.	4a\	-a	.	.	.
=3	=3	=3	=3	=3	=3	=3	=3	=3	=3	=3	=3	=3
2.ff\	.	.	.	.	.	.	.	2.ff\	om-	1ryy	1ryy	1ryy
4ff\	.	.	.	.	.	.	.	4ff\	-ni-	.	.	.
=4	=4	=4	=4	=4	=4	=4	=4	=4	=4	=4	=4	=4
2ee\	.	.	.	.	.	.	.	2ee\	-a	1ryy	1ryy	1ryy
4dd\	.	.	.	.	.	.	.	4dd\	man-	.	.	.
4cc\	.	.	.	.	.	.	.	4cc\	.	.	.	.
=5-	=5	=5	=5	=5	=5	=5	=5	=5-	=5	=5	=5	=5
2dd\	.	00r	.	00r	.	1r	.	2dd\	-da-	1ryy	1ryy	1ryy
2ee\	.	.	.	.	.	.	.	2ee\	-ta	.	.	.
*clefC3	*	*	*	*	*	*	*	*	*	*	*	*
!	!	!	!	!	!	!	!	!LO:LB:g=original	!	!	!	!
=6	=6	=6	=6	=6	=6	=6	=6	=6	=6	=6	=6	=6
2.a\	.	.	.	.	.	1a	Fi-	4a\	E-	1ryy	1ryy	1ryy
.	.	.	.	.	.	.	.	4b\	-jus	.	.	.
.	.	.	.	.	.	.	.	4cc\	con-	.	.	.
4a\	.	.	.	.	.	.	.	4dd\	-fir-	.	.	.
!LO:LB:g=original	!	!	!	!	!	!	!	!	!	!	!	!
=7	=7	=7	=7	=7	=7	=7	=7	=7	=7	=7	=7	=7
*	*	*	*	*	*	*2\right	*	*	*	*	*	*
2g\	.	.	.	.	.	2g\	-de-	4ee\	-ma-	1ryy	1ryy	1ryy
.	.	.	.	.	.	.	.	4ff#X\	.	.	.	.
2e\	.	.	.	.	.	4e\	-li-	4gg\	.	.	.	.
.	.	.	.	.	.	4e\	-a	4ff#\	.	.	.	.
=8-	=8	=8	=8	=8	=8	=8	=8	=8-	=8	=8	=8	=8
2.cc\	.	.	.	.	.	2.cc\	om-	2ee\	-ta	1ryy	1ryy	1ryy
.	.	.	.	.	.	.	.	4ff#X\	in	.	.	.
4cc\	.	.	.	.	.	4cc\	-ni-	4ee\	.	.	.	.
=9	=9	=9	=9	=9	=9	=9	=9	=9	=9	=9	=9	=9
2b\	.	00r	.	00r	.	2b\	-a	2dd#X\	Sae-	1ryy	1ryy	1ryy
4a\	.	.	.	.	.	(4a\	man-	4ee\	-cu-	.	.	.
4g\	.	.	.	.	.	4g\)	.	4ee\	-lum	.	.	.
=10	=10	=10	=10	=10	=10	=10-	=10	=10-	=10	=10	=10	=10
2a\	.	.	.	.	.	2a\	-da-	2ee\	Sae-	1ryy	1ryy	1ryy
2b\	.	.	.	.	.	2b\	-ta	2dd#X\	-cu-	.	.	.
!	!	!	!	!	!	!LO:LB:g=original	!	!LO:LB:g=original	!	!	!	!
=11-	=11	=11	=11	=11	=11	=11	=11	=11	=11	=11	=11	=11
4e\	.	.	.	.	.	4e\	E-	2ee\	-li	1ryy	1ryy	1ryy
4f#X\	.	.	.	.	.	4f#X\	-jus	.	.	.	.	.
4g\	.	.	.	.	.	4g\	con-	4b\	Con-	.	.	.
4a\	.	.	.	.	.	4a\	-fir-	4cc\	-fir-	.	.	.
=12	=12	=12	=12	=12	=12	=12	=12	=12-	=12	=12	=12	=12
2b\	.	.	.	.	.	2b\	-ma-	2dd\	-ma-	1ryy	1ryy	1ryy
4a\	.	.	.	.	.	4a\	-ta	4cc\	-ta	.	.	.
4g#X\	.	.	.	.	.	4g#X\	in	4b\	in	.	.	.
=13	=13	=13	=13	=13	=13	=13	=13	=13	=13	=13	=13	=13
4a\	.	00r	.	1r	.	2a\	Sae-	4cc\	Sae-	1ryy	1ryy	1ryy
4e\	.	.	.	.	.	.	.	4ee\	.	.	.	.
2a\	.	.	.	.	.	4a\	-cu-	4cc\	-cu-	.	.	.
.	.	.	.	.	.	4a\	-lum	4a\	-lum	.	.	.
*clefC4	*	*	*	*	*	*	*	*	*	*	*	*
!LO:LB:g=original	!	!	!	!	!	!	!	!	!	!	!	!
=14	=14	=14	=14	=14	=14	=14	=14	=14-	=14	=14	=14	=14
2.e\	4	.	.	1e	Fi-	2a\	Sae-	2.b\	Sae-	1ryy	1ryy	1ryy
.	3	.	.	.	.	2g#X\	-cu-	.	.	.	.	.
4e\	.	.	.	.	.	.	.	4b\	-cu-	.	.	.
=15	=15	=15	=15	=15	=15	=15	=15	=15	=15	=15	=15	=15
*	*	*	*	*2\right	*	*	*	*	*	*	*	*
2c\	.	.	.	2c\	-de-	2a\	-li	2a\	-li	1ryy	1ryy	1ryy
2A\	.	.	.	4A\	-li-	2r	.	4ee\	Con-	.	.	.
.	.	.	.	4A\	-a	.	.	4ee\	-fir-	.	.	.
!	!	!	!	!	!	!LO:LB:g=original	!	!LO:LB:g=original	!	!	!	!
=16	=16	=16	=16	=16-	=16	=16	=16	=16	=16	=16	=16	=16
2.f\	7	.	.	2.f\	om-	2.a\	Con-	2ee\	-ma-	1ryy	1ryy	1ryy
.	.	.	.	.	.	.	.	4dd\	-ta	.	.	.
4f\	6	.	.	4f\	-ni-	4a\	-fir-	4dd\	in	.	.	.
=17	=17	=17	=17	=17	=17	=17	=17	=17	=17	=17	=17	=17
2e\	.	0r	.	2e\	-a	4e\	-ma-	2ee\	Sae-	1ryy	1ryy	1ryy
.	.	.	.	.	.	4g\	.	.	.	.	.	.
4d\	.	.	.	(4d\	man-	4fn\	-ta	4a\	-cu-	.	.	.
4c\	.	.	.	4c\)	.	4e\	in	4a\	-lum	.	.	.
=18	=18	=18	=18	=18-	=18	=18	=18	=18	=18	=18	=18	=18
2d\	.	.	.	2d\	-da-	2f\	Sae-	2.b\	Sae-	1ryy	1ryy	1ryy
2e\	.	.	.	2e\	-ta	4e\	-cu-	.	.	.	.	.
.	.	.	.	.	.	4d\	-lum	4b\	-cu-	.	.	.
*clefF4	*	*	*	*	*	*	*	*	*	*	*	*
!	!	!	!	!LO:LB:g=original	!	!	!	!	!	!	!	!
=19	=19	=19	=19	=19	=19	=19	=19	=19	=19	=19	=19	=19
1A	.	1A	Fi-	4A\	E-	4c\	Sae-	2.cc\	-li	1ryy	1ryy	1ryy
.	.	.	.	4B\	-jus	4d\	.	.	.	.	.	.
.	.	.	.	4c\	Con-	4e\	.	.	.	.	.	.
.	.	.	.	4d\	-fir-	4f#X\	.	4cc\	in	.	.	.
!	!	!	!	!	!	!LO:LB:g=original	!	!	!	!	!	!
=20	=20	=20	=20	=20-	=20	=20	=20	=20	=20	=20	=20	=20
*	*	*2\right	*	*	*	*	*	*	*	*	*	*
2G\	.	2G\	-de-	4e\	-ma-	4g\	.	2b\	Sae-	1ryy	1ryy	1ryy
.	.	.	.	4f#X\	.	4a\	.	.	.	.	.	.
4E\	.	4E\	-li-	4g\	.	[2b\	.	4b\	-cu-	.	.	.
4E\	.	4E\	-a	4f#\	.	.	.	4b\	-lum	.	.	.
!	!	!	!	!	!	!	!	!LO:LB:g=original	!	!	!	!
=21-	=21	=21	=21	=21	=21	=21	=21	=21	=21	=21	=21	=21
2.c\	.	2.c\	om-	2e\	-ta	4b\]	.	2e/	Sae-	1ryy	1ryy	1ryy
.	.	.	.	.	.	4g\	.	.	.	.	.	.
.	.	.	.	(4f#X\	in	2a\	.	2a\	.	.	.	.
4c\	.	4c\	-ni-	4e\)	.	.	.	.	.	.	.	.
!LO:LB:g=original	!	!	!	!	!	!	!	!	!	!	!	!
=22	=22	=22	=22	=22	=22	=22	=22	=22	=22	=22	=22	=22
2B\	#3	2B\	-a	2d#X\	Sae-	2f#X\	.	2b\	.	1ryy	1ryy	1ryy
4A\	.	4A\	man-	4e\	-cu-	4f#\	.	4cc\	.	.	.	.
!-	!	!	!	!	!	!	!	!	!	!	!	!
4G\	.	4G\	.	4e\	-li	4g\	.	4b\	.	.	.	.
!	!	!LO:LB:g=original	!	!	!	!	!	!	!	!	!	!
=23-	=23	=23	=23	=23-	=23	=23-	=23	=23	=23	=23	=23	=23
2A\	#6	2A\	-da-	2e\	Sae-	2.f#X\	.	2cc\	.	1ryy	1ryy	1ryy
2B\	#3	2B\	-ta	2e\	-cu-	.	.	2b\	-cu-	.	.	.
.	.	.	.	.	.	4f#\	-cu-	.	.	.	.	.
!	!	!	!	!LO:LB:g=original	!	!LO:LB:g=original	!	!	!	!	!	!
=24	=24	=24	=24	=24	=24	=24	=24	=24	=24	=24	=24	=24
1E	.	4E\	E-	2e\	-li	2g\	-li	2b\	-li,	1ryy	1ryy	1ryy
.	.	4F#X\	-jus	.	.	.	.	.	.	.	.	.
.	.	4G\	Con-	4E/	Con-	4g\	con-	4b\	Con-	.	.	.
.	.	4A\	-fir-	4E/	-fir-	4g\	-fir-	4cc\	-fir-	.	.	.
=25-	=25	=25	=25	=25	=25	=25	=25	=25	=25	=25	=25	=25
1D	#3	2B\	-ma-	2D/	-ma-	2f#X\	-ma-	2dd\	-ma-	1ryy	1ryy	1ryy
.	.	4F#X\	-ta	4D/	-ta	4f#\	-ta	4a\	-ta	.	.	.
.	.	4G#X\	in	4D/	in	4f#\	in	4b\	in	.	.	.
!	!	!	!	!	!	!	!	!LO:LB:g=original	!	!	!	!
=26	=26	=26	=26	=26	=26	=26	=26	=26	=26	=26	=26	=26
1C	.	4A\	Sae-	2C/	Sae-	2e\	Sae-	2.cc\	Sae-	1ryy	1ryy	1ryy
.	.	4E\	.	.	.	.	.	.	.	.	.	.
.	.	4A\	-cu-	4C/	-cu-	4e\	-cu-	.	.	.	.	.
.	.	4A\	-lum	4C/	-lum	4e\	-lum	8b\	-cu-	.	.	.
.	.	.	.	.	.	.	.	8a\	-lum	.	.	.
=27-	=27	=27	=27	=27	=27	=27	=27	=27	=27	=27	=27	=27
2BB/	7	2A\	Sae-	2BB/	Sae-	2e\	sae-	2.b\	Sae-	1ryy	1ryy	1ryy
2E\	#3	2G#X\	-cu-	2E/	-cu-	2e\	-cu-	.	.	.	.	.
.	.	.	.	.	.	.	.	4b\	-cu-	.	.	.
!	!	!LO:LB:g=original	!	!	!	!LO:LB:g=original	!	!	!	!	!	!
=28	=28	=28	=28	=28	=28	=28	=28	=28	=28	=28	=28	=28
2AA/	.	2A\	-li	2A\	-li	2e\	-li	2cc\	-li	1ryy	1ryy	1ryy
2A\	.	4c\	Con-	4A\	Con-	4e\	con-	4cc\	Con-	.	.	.
.	.	4d\	-fir-	4A\	-fir-	4f#X\	-fir-	4cc\	-fir-	.	.	.
!	!	!	!	!LO:LB:g=original	!	!	!	!	!	!	!	!
=29-	=29	=29	=29	=29	=29	=29	=29	=29	=29	=29	=29	=29
1Gn	6	2e\	-ma-	2G/	-ma-	2g\	-ma-	2b\	-ma-	1ryy	1ryy	1ryy
.	.	4B\	-ta	4G/	-ta	4d\	-ta	4b\	-ta	.	.	.
.	.	4c\	in	4G/	in	4e\	in	4b\	in	.	.	.
!	!	!	!	!	!	!	!	!LO:LB:g=original	!	!	!	!
=30	=30	=30	=30	=30	=30	=30	=30	=30	=30	=30	=30	=30
2Fn\	.	4d\	Sae-	2F/	Sae-	2.fn\	sae-	2a\	Sae-	1ryy	1ryy	1ryy
.	.	4A\	.	.	.	.	.	.	.	.	.	.
2D\	.	4d\	-cu-	4F/	-cu-	.	.	4a\	-cu-	.	.	.
.	.	4d\	-lum	4F/	-lum	8e\L	-cu-	4a\	-lum	.	.	.
.	.	.	.	.	.	8d\J	.	.	.	.	.	.
=31-	=31	=31	=31	=31	=31	=31	=31	=31	=31	=31	=31	=31
2E\	.	2d\	Sae-	2E/	Sae-	2.e\	-lum	2g\	Sae-	1ryy	1ryy	1ryy
2A\	#3	2c#X\	-cu-	2A\	-cu-	.	.	2a\	-cu-	.	.	.
.	.	.	.	.	.	4e\	in	.	.	.	.	.
!LO:LB:g=original	!	!	!	!	!	!	!	!	!	!	!	!
=32	=32	=32	=32	=32	=32	=32	=32	=32	=32	=32	=32	=32
2D\	.	2d\	-li	2D/	-li	2f\	Sae-	2a\	-li	1ryy	1ryy	1ryy
2F\	.	2r	.	2F/	in	2a\	.	2dd\	in	.	.	.
!	!	!LO:LB:g=original	!	!	!	!LO:PB:g=original	!	!	!	!	!	!
=33-	=33	=33	=33	=33	=33	=33	=33	=33	=33	=33	=33	=33
!	!	!LO:TX:b:t=1	!	!	!	!	!	!	!	!	!	!
2E\	#3	1r	.	2E/	Sae-	2g#X\	[[cu]]-	2dd\	Sae-	1ryy	1ryy	1ryy
2AA/	.	.	.	4A/	-cu-	4a\	-cu-	4cc\	-cu-	.	.	.
.	.	.	.	4A/	-lum	4a\	-lum	4dd\	-lum	.	.	.
!	!	!	!	!LO:LB:g=original	!	!	!	!	!	!	!	!
=34	=34	=34	=34	=34	=34	=34	=34	=34-	=34	=34	=34	=34
1E	4	1e	fi-	2e\	Sae-	2a\	Sae-	2.b\	Sae-	1ryy	1ryy	1ryy
.	#3	.	.	2E/	-cu-	2g#X\	-cu-	.	.	.	.	.
.	.	.	.	.	.	.	.	4b\	-cu-	.	.	.
!	!	!	!	!	!	!	!	!LO:PB:g=original	!	!	!	!
=35-	=35	=35	=35	=35-	=35	=35	=35	=35	=35	=35	=35	=35
2C/	.	2c\	-de-	2A\	-li	2a\	-li	2a\	-li	1ryy	1ryy	1ryy
2AA/	.	4A\	-li-	(4c\	in	2r	.	4ee\	Con-	.	.	.
.	.	4A\	-a	4B\)	.	.	.	4ee\	-fir-	.	.	.
=36	=36	=36	=36	=36	=36	=36	=36	=36	=36	=36	=36	=36
1F	7	2.F\	om-	2A\	Sae-	2r	.	4ee\	-ma-	1ryy	1ryy	1ryy
.	6	.	.	.	.	.	.	4dd\	-ta	.	.	.
.	.	.	.	4A\	-cu-	4a\	Con-	4dd\	.	.	.	.
.	.	4F\	-ni-	4A\	-lum	4a\	-fir-	4dd\	in	.	.	.
=37-	=37	=37-	=37	=37	=37	=37	=37	=37	=37	=37	=37	=37
2E\	#3	2E\	-a	2B\	Sae-	2g#X\	-ma-	2ee\	Sae-	1ryy	1ryy	1ryy
4D\	.	4D/	man-	4c\	-cu-	4a\	-ta	4a\	-cu-	.	.	.
4C\	.	4C/	.	4c\	-li	4a\	in	4a\	-lum	.	.	.
!	!	!	!	!	!	!LO:LB:g=original	!	!	!	!	!	!
=38	=38	=38	=38	=38	=38	=38	=38	=38	=38	=38	=38	=38
2D\	.	2D\	-da-	2.B\	Sae-	2a\	sae-	2.b\	Sae-	1ryy	1ryy	1ryy
2E\	#3	2E\	-ta	.	.	2g#X\	-cu-	.	.	.	.	.
.	.	.	.	4B\	-cu-	.	.	4b\	-cu-	.	.	.
!	!	!LO:PB:g=original	!	!LO:PB:g=original	!	!	!	!	!	!	!	!
=39-	=39	=39	=39	=39	=39	=39	=39	=39	=39	=39	=39	=39
4AA/	.	4AA/	E-	2A\	-li	2a\	-lum	2cc\	-li	1ryy	1ryy	1ryy
4BB/	.	4BB/	-jus	.	.	.	.	.	.	.	.	.
4C/	.	4C/	Con-	4e\	Con-	4a\	con-	4cc\	Con-	.	.	.
4D/	.	4D/	-fir-	4fn\	-fir-	4a\	-fir-	4cc\	-fir-	.	.	.
!	!	!	!	!	!	!	!	!LO:LB:g=original	!	!	!	!
=40	=40	=40	=40	=40	=40	=40	=40	=40	=40	=40	=40	=40
4E\	n3	4E\	-ma-	2e\	-ma-	2gn\	-ma-	2b\	-ma-	1ryy	1ryy	1ryy
4F\	.	4F\	.	.	.	.	.	.	.	.	.	.
4G\	.	4G\	-ta	4e\	-ta	4g\	-ta	4b\	-ta	.	.	.
4E\	.	4E\	in	4e\	in	4g\	in	4cc\	in	.	.	.
!LO:LB:g=original	!	!	!	!	!	!	!	!	!	!	!	!
=41-	=41	=41	=41	=41	=41	=41	=41	=41	=41	=41	=41	=41
2F\	.	4F\	Sae-	4c\	Sae-	2a\	Sae-	4a\	Sae-	1ryy	1ryy	1ryy
.	.	4F\	-cu-	4d\	-cu-	.	.	4b\	-cu-	.	.	.
2E\	.	2E\	-lum	2e\	-lum	2g\	.	2cc\	-lum	.	.	.
=42	=42	=42	=42	=42	=42	=42	=42	=42	=42	=42	=42	=42
2D\	.	2D\	Sae-	2f\	Sae-	4f\	-cu-	2cc\	Sae-	1ryy	1ryy	1ryy
.	.	.	.	.	.	4f\	-lum	.	.	.	.	.
2G\	.	2G\	-cu-	2d\	-cu-	4.g\	Sae-	2b\	-cu-	.	.	.
.	.	.	.	.	.	8g\	-cu-	.	.	.	.	.
!	!	!	!	!	!	!LO:LB:g=original	!	!	!	!	!	!
=43-	=43	=43	=43	=43	=43	=43	=43	=43	=43	=43	=43	=43
2C\	.	1C	-li	2e\	-li.	2g\	-li	2cc\	-li	1ryy	1ryy	1ryy
*clefC3	*	*	*	*	*	*	*	*	*	*	*	*
2c\	.	.	.	2r	.	2c\	fa-	2r	.	.	.	.
!	!	!	!	!LO:LB:g=original	!	!	!	!	!	!	!	!
=44	=44	=44	=44	=44	=44	=44	=44	=44	=44	=44	=44	=44
!	!	!LO:TX:b:t=5	!	!	!	!	!	!LO:TX:b:t=4	!	!	!	!
2d\	.	00r	.	2r	.	2d\	-cta	00r	.	1ryy	1ryy	1ryy
*clefC4	*	*	*	*	*	*	*	*	*	*	*	*
2G\	.	.	.	2G/	fa-	2e\	in	.	.	.	.	.
=45	=45	=45	=45	=45	=45	=45	=45	=45	=45	=45	=45	=45
2A\	.	.	.	2A\	-cta	2f\	ve-	.	.	1ryy	1ryy	1ryy
2B\	.	.	.	2B\	in	2g\	-ri-	.	.	.	.	.
=46-	=46	=46	=46	=46	=46	=46	=46	=46	=46	=46	=46	=46
2c\	.	.	.	2c\	Ve-	4c\	-ta-	.	.	1ryy	1ryy	1ryy
.	4	.	.	.	.	4c\	-te	.	.	.	.	.
2d\	3	.	.	2d\	-ri-	2f\	&	.	.	.	.	.
=47	=47	=47	=47	=47	=47	=47	=47	=47	=47	=47	=47	=47
2G\	.	.	.	4G/	-ta-	2f\	ae-	.	.	1ryy	1ryy	1ryy
.	.	.	.	4G/	-te	.	.	.	.	.	.	.
2c\	.	.	.	2c\	&	2e\	-qui-	.	.	.	.	.
=48-	=48	=48	=48	=48	=48	=48	=48	=48	=48	=48	=48	=48
2c\	4 2	1r	.	2c\	ae-	2d\	-ta-	2r	.	1ryy	1ryy	1ryy
2B\	6	.	.	2B\	-qui-	[2g\	.	2g\	fa-	.	.	.
!LO:PB:g=original	!	!LO:LB:g=original	!	!	!	!LO:LB:g=original	!	!LO:LB:g=original	!	!	!	!
=49	=49	=49	=49	=49	=49	=49	=49	=49	=49	=49	=49	=49
2A\	7	2r	.	2A\	-ta-	2g\]	.	2a\	-cta	1ryy	1ryy	1ryy
*clefF4	*	*	*	*	*	*	*	*	*	*	*	*
2D\	#3	2D\	Fa-	2d\	.	2f#X\	.	2b\	in	.	.	.
!	!	!	!	!LO:LB:g=original	!	!	!	!	!	!	!	!
=50	=50	=50	=50	=50	=50	=50	=50	=50	=50	=50	=50	=50
!LO:TX:t=P:problem=brak taktu	!	!	!	!	!	!	!	!	!	!	!	!
1ryy	.	2E\	-cta	2G/	.	2g\	.	2cc\	Ve-	1ryy	1ryy	1ryy
.	.	2F#X\	in	2A/	.	4f#X\	.	2dd\	-ri-	.	.	.
.	.	.	.	.	.	4e\	.	.	.	.	.	.
=51	=51	=51	=51	=51	=51	=51	=51	=51	=51	=51	=51	=51
2G\	.	2G\	Ve-	2B\	.	2d\	.	4g\	-ta-	1ryy	1ryy	1ryy
.	.	.	.	.	.	.	.	4g\	-te	.	.	.
2A\	.	2A\	-ri-	2c\	.	2c\	.	2cc\	&	.	.	.
=52	=52	=52	=52	=52	=52	=52	=52	=52	=52	=52	=52	=52
4D\	n3	4D\	-ta-	1d	.	2fn\	.	2cc\	ae-	1ryy	1ryy	1ryy
4D\	.	4D\	-te	.	.	.	.	.	.	.	.	.
2G\	.	2G\	&	.	.	2g\	.	2b\	-qui-	.	.	.
=53	=53	=53	=53	=53	=53	=53-	=53	=53	=53	=53	=53	=53
4G\	.	4G\	ae-	2c\	-te	1a	.	4a\	-ta-	1ryy	1ryy	1ryy
4C\	.	4C\	-qui-	.	.	.	.	4a\	-te	.	.	.
[2Fn\	.	[2Fn\	-ta-	2A\	&	.	.	2dd\	&	.	.	.
!	!	!LO:LB:g=original	!	!	!	!	!	!LO:LB:g=original	!	!	!	!
=54	=54	=54	=54	=54	=54	=54	=54	=54	=54	=54	=54	=54
2F\]	.	2F\]	.	2c\	ae-	2g\	.	2cc\	ae-	1ryy	1ryy	1ryy
2E\	.	2E\	.	2e\	-qui-	2g\	.	2cc\	-qui-	.	.	.
!	!	!	!	!	!	!LO:LB:g=original	!	!	!	!	!	!
=55-	=55	=55	=55	=55	=55	=55	=55	=55-	=55	=55	=55	=55
4F#X\	.	4F#X\	.	1d	-ta-	4a\	.	2cc\	-ta-	1ryy	1ryy	1ryy
4D\	#3	4D\	.	.	.	4f#X\	.	.	.	.	.	.
2G\	.	2G\	.	.	.	[2g\	.	2b\	.	.	.	.
!LO:LB:g=original	!	!	!	!LO:LB:g=original	!	!	!	!	!	!	!	!
=56	=56	=56	=56	=56	=56	=56	=56	=56	=56	=56	=56	=56
2C\	.	2C\	.	2e\	.	2g\]	.	1a	.	1ryy	1ryy	1ryy
!	!	!	!	!\	!	!	!	!	!	!	!	!
2D\	#3	2D\	.	2d\	.	2f#X\	.	.	.	.	.	.
=57-	=57	=57-	=57	=57-	=57	=57-	=57	=57-	=57	=57	=57	=57
2GG/	.	2GG/	-te	2d\	-te	2g\	.	2g\	.	1ryy	1ryy	1ryy
2B\	#3	2B\	&	2r	.	4f#X\	.	[2b\	.	.	.	.
.	.	.	.	.	.	4d#X\	.	.	.	.	.	.
=58	=58	=58	=58	=58	=58	=58	=58	=58	=58	=58	=58	=58
!	!	!	!	!LO:TX:b:t=1	!	!	!	!	!	!	!	!
2.c\	7	2.c\	ae-	1r	.	2.e\	.	4b\]	.	1ryy	1ryy	1ryy
.	6	.	.	.	.	.	.	4g\	.	.	.	.
.	.	.	.	.	.	.	.	[2a\	.	.	.	.
4A\	.	4A\	-qui-	.	.	4f#X\	.	.	.	.	.	.
!	!	!LO:LB:g=original	!	!	!	!	!	!	!	!	!	!
=59-	=59	=59	=59	=59	=59	=59	=59	=59	=59	=59	=59	=59
2B\	.	2B\	-ta-	2B\	&	2d#X\	.	2a\]	.	1ryy	1ryy	1ryy
2G\	.	2E\	.	4B\	ae-	[2e\	.	2g\	.	.	.	.
.	.	.	.	4B\	-qui-	.	.	.	.	.	.	.
!	!	!	!	!	!	!LO:LB:g=original	!	!	!	!	!	!
=60	=60	=60-	=60	=60	=60	=60	=60	=60-	=60	=60	=60	=60
!	!	!	!	!	!	!LO:TX:a:t=P:problem=brak zakończenia ligatury	!	!	!	!	!	!
2B\	#3	1B	.	1B	-ta-	2e\]	.	1f#X	.	1ryy	1ryy	1ryy
*	*below	*	*	*	*	*	*	*	*	*	*	*
2BB/	4	.	.	.	.	2d#X\	.	.	.	.	.	.
.	#3	.	.	.	.	.	.	.	.	.	.	.
*	*above	*	*	*	*	*	*	*	*	*	*	*
!	!	!	!	!	!	!	!	!LO:LB:g=original	!	!	!	!
=61-	=61	=61	=61	=61-	=61	=61	=61	=61	=61	=61	=61	=61
2EE/	n3	2E\	-te	2B\	-te	2e\	.	2e\	-te	1ryy	1ryy	1ryy
2E\	#3	2E\	&	2e\	&	2e\	.	2g#X\	&	.	.	.
=62	=62	=62-	=62	=62	=62	=62	=62	=62	=62	=62	=62	=62
2.Fn\	.	2.Fn\	ae-	2A\	ae-	4c\	-te	2.a\	ae-	1ryy	1ryy	1ryy
.	.	.	.	.	.	4e\	et	.	.	.	.	.
.	.	.	.	2d\	-qui-	4fn\	ae-	.	.	.	.	.
4D\	.	4D\	-qui-	.	.	4f\	-qui-	4b\	-qui-	.	.	.
!	!	!	!	!LO:LB:g=original	!	!	!	!	!	!	!	!
=63	=63	=63	=63	=63	=63	=63	=63	=63	=63	=63	=63	=63
2E\	.	2E\	-ta-	2d\	-ta-	[1e	-ta-	2g#X\	-ta-	1ryy	1ryy	1ryy
2AA/	.	2A\	.	2c\	.	.	.	[2a\	.	.	.	.
=64	=64	=64-	=64	=64	=64	=64	=64	=64	=64	=64	=64	=64
1E	4	1E	-te	1B	.	1e]	.	2a\]	.	1ryy	1ryy	1ryy
.	#3	.	.	.	.	.	.	2g#X\	.	.	.	.
!	!	!LO:LB:g=original	!	!	!	!	!	!	!	!	!	!
=65	=65	=65	=65	=65	=65	=65	=65	=65	=65	=65	=65	=65
1A	.	1A	Fa-	1c	-te	1e	-te	1a	-te	1ryy	1ryy	1ryy
!LO:LB:g=original	!	!	!	!	!	!LO:LB:g=original	!	!	!	!	!	!
=66	=66	=66-	=66	=66	=66	=66	=66	=66	=66	=66	=66	=66
!	!	!	!	!LO:TX:b:t=5	!	!LO:TX:b:t=4	!	!LO:TX:b:t=1	!	!	!	!
2Gn\	6	2Gn\	-cta	00r	.	00r	.	1r	.	1ryy	1ryy	1ryy
2E\	.	2E\	in	.	.	.	.	.	.	.	.	.
!	!	!	!	!	!	!	!	!LO:LB:g=original	!	!	!	!
=67-	=67	=67	=67	=67	=67	=67	=67	=67	=67	=67	=67	=67
4A\	n3	4A\	Ve-	.	.	.	.	1ee	fa-	1ryy	1ryy	1ryy
4B\	.	4B\	.	.	.	.	.	.	.	.	.	.
4c\	.	4c\	-ri-	.	.	.	.	.	.	.	.	.
4B\	.	4B\	-ta-	.	.	.	.	.	.	.	.	.
=68	=68	=68	=68	=68	=68	=68	=68	=68-	=68	=68	=68	=68
2A\	.	2A\	-te	.	.	.	.	2cc\	-cta	1ryy	1ryy	1ryy
2c\	.	4c\	.	.	.	.	.	2a\	in	.	.	.
.	.	4c\	&	.	.	.	.	.	.	.	.	.
=69	=69	=69	=69	=69	=69	=69	=69	=69	=69	=69	=69	=69
2d\	.	2d\	ae-	.	.	.	.	2ff\	Ve-	1ryy	1ryy	1ryy
2B\	.	2B\	-qui-	.	.	.	.	2dd\	-ri-	.	.	.
!	!	!LO:LB:g=original	!	!	!	!	!	!	!	!	!	!
=70-	=70	=70	=70	=70	=70	=70	=70	=70-	=70	=70	=70	=70
2c\	.	2c\	-ta-	1r	.	1a	San-	2ee\	-ta-	1ryy	1ryy	1ryy
2A\	.	2A\	.	.	.	.	.	2cc\	.	.	.	.
=71	=71	=71	=71	=71	=71	=71	=71	=71	=71	=71	=71	=71
2B 2E\	.	2E\	-te	1e	fa-	2gn\	-cta	2.b\	.	1ryy	1ryy	1ryy
2G#X\	6	2G#X\	&	.	.	2e\	in	.	.	.	.	.
.	.	.	.	.	.	.	.	4b\	.	.	.	.
=72-	=72	=72	=72	=72-	=72	=72-	=72	=72-	=72	=72	=72	=72
2A\	.	2A\	ae-	2c\	-cta	2e\	ve-	4cc\	.	1ryy	1ryy	1ryy
.	.	.	.	.	.	.	.	4dd\	.	.	.	.
2c\	.	2c\	-qui-	2A\	in	2a\	-ri-	[2ee\	.	.	.	.
=73	=73	=73	=73	=73	=73	=73	=73	=73	=73	=73	=73	=73
2d\	.	2d\	-ta-	2.f\	Ve-	2a\	-ta-	2ee\]	.	1ryy	1ryy	1ryy
2B\	.	2B\	.	.	.	2b\	.	1dd\	.	.	.	.
.	.	.	.	4g\	-ri-	.	.	.	.	.	.	.
=74-	=74	=74-	=74	=74	=74	=74-	=74	=74-	=74	=74	=74	=74
2c\	.	2c\	.	2.e\	-ta-	2g\	.	.	.	1ryy	1ryy	1ryy
2A\	.	2A\	.	.	.	2a\	.	[2cc\	.	.	.	.
.	.	.	.	4f\	.	.	.	.	.	.	.	.
!LO:LB:g=original	!	!LO:LB:g=original	!	!LO:LB:g=original	!	!	!	!LO:LB:g=original	!	!	!	!
=75	=75	=75	=75	=75	=75	=75	=75	=75	=75	=75	=75	=75
2B\	.	2B\	.	2.d\	.	2f\	.	2cc\]	.	1ryy	1ryy	1ryy
2G#X\	6	2G#X\	.	.	.	1e\	.	2b\	.	.	.	.
.	.	.	.	4e\	.	.	.	.	.	.	.	.
=76-	=76	=76-	=76	=76-	=76	=76-	=76	=76-	=76	=76	=76	=76
2A\	.	2A\	.	4c\	.	.	.	4a\	.	1ryy	1ryy	1ryy
.	.	.	.	4B\	.	.	.	4g#X\	.	.	.	.
2C\	.	2C\	.	2A\	.	2a\	.	[2a\	.	.	.	.
!	!	!	!	!	!	!LO:LB:g=original	!	!	!	!	!	!
=77	=77	=77	=77	=77	=77	=77	=77	=77	=77	=77	=77	=77
2D\	n3	2D\	.	1B	.	2f\	.	2a\]	.	1ryy	1ryy	1ryy
2E\	#3	2E\	.	.	.	2e\	.	2g#X\	.	.	.	.
=78-	=78	=78-	=78	=78	=78	=78-	=78	=78-	=78	=78	=78	=78
2AA/	n3	2AA/	-te	2c\	-te	1e	-te	2a\	-te	1ryy	1ryy	1ryy
2A\	#3	2A\	&	2c#X\	&	.	.	2a\	&	.	.	.
=79	=79	=79	=79	=79	=79	=79	=79	=79	=79	=79	=79	=79
2D\	.	2D\	ae-	2d\	ae-	2r	.	2a\	ae-	1ryy	1ryy	1ryy
2AA/	.	2AA/	-qui-	2e\	-qui-	2a\	&	2a\	-qui-	.	.	.
=80-	=80	=80-	=80	=80-	=80	=80-	=80	=80	=80	=80	=80	=80
2D\	.	2D\	-ta-	2f\	-ta	2f\	ae-	[1a	-ta-	1ryy	1ryy	1ryy
2A\	#	2A\	.	2e\	.	2c#X\	-qui-	.	.	.	.	.
!	!	!LO:LB:g=original	!	!LO:LB:g=original	!	!	!	!LO:LB:g=original	!	!	!	!
=81	=81	=81	=81	=81	=81	=81	=81	=81	=81	=81	=81	=81
2d\	.	2d\	.	2d\	.	2d\	-ta-	0a_	.	1ryy	1ryy	1ryy
!	!	!LO:TX:t=P:problem=skreślona kreska taktowa pojedyncza	!	!	!	!	!	!	!	!	!	!
2A\	#	2A\	.	2c#X\	.	2e\	.	.	.	.	.	.
=82-	=82	=82-	=82	=82-	=82	=82-	=82	=82	=82	=82	=82	=82
2D\	.	2F\	.	2d\	.	2f\	.	.	.	1ryy	1ryy	1ryy
2AA/	#3	2AA/	.	2e\	.	2e\	.	.	.	.	.	.
=83	=83	=83	=83	=83	=83	=83	=83	=83	=83	=83	=83	=83
0D	.	0D	.	0f	.	0d	.	0a]	.	1ryy	1ryy	1ryy
=84	=84	=84	=84	=84	=84	=84	=84	=84	=84	=84	=84	=84
.	.	.	.	.	.	.	.	.	.	1ryy	1ryy	1ryy
=85	=85	=85	=85	=85	=85	=85	=85	=85	=85	=85	=85	=85
1AA	.	1AA	-te	1e;<	.	1c#X	-te	1a	-te.	1ryy	1ryy	1ryy
==	==	==	==	==	==	==	==	==	==	==	==	==
*-	*-	*-	*-	*-	*-	*-	*-	*-	*-	*-	*-	*-
!!!system-decoration: [g1][g2]s8
!!!RDF**kern: < = below
!!!ENC: Marta Lawrence
!!!END: 2021-02-14
!!!ENC: Andrzej Kubiczek
!!!END: 2021-02-04
